svg/color/hrdg.svg

<?xml version="1.0" encoding="UTF-8" ?>
<!DOCTYPE svg PUBLIC "-//W3C//DTD SVG 1.1//EN" "http://www.w3.org/Graphics/SVG/1.1/DTD/svg11.dtd">
<svg width="250pt" height="250pt" viewBox="0 0 250 250" version="1.1" xmlns="http://www.w3.org/2000/svg">
<g id="#ffffffff">
<path fill="#ffffff" opacity="1.00" d=" M 0.00 0.00 L 250.00 0.00 L 250.00 250.00 L 0.00 250.00 L 0.00 0.00 M 67.01 21.11 C 61.74 23.58 56.98 26.95 52.26 30.31 C 26.25 49.20 9.28 79.92 7.25 112.00 C 6.04 120.37 7.02 128.86 8.32 137.15 C 8.47 142.39 10.18 148.18 14.74 151.26 C 21.93 157.04 33.61 155.61 39.20 148.29 C 46.30 138.41 48.37 125.91 48.29 114.00 C 47.70 108.35 47.76 102.57 46.09 97.09 C 51.11 97.60 56.21 97.18 61.20 98.08 C 71.73 99.76 82.36 101.07 93.04 100.57 C 98.82 100.60 104.55 99.35 109.84 97.06 C 128.48 90.06 140.28 68.75 136.57 49.24 C 133.96 31.41 119.15 16.17 101.31 13.33 C 89.30 10.42 77.49 15.80 67.01 21.11 M 157.96 15.02 C 148.32 18.40 143.78 31.24 148.95 40.01 C 156.35 53.85 170.47 62.27 184.50 68.18 C 185.99 68.70 187.56 68.98 189.11 69.28 L 188.88 69.85 C 186.14 73.17 184.02 76.94 181.43 80.38 C 174.99 89.04 168.10 97.45 162.99 106.99 C 157.70 116.39 154.99 127.61 157.21 138.31 C 159.00 149.49 165.59 159.67 174.72 166.28 C 185.71 174.07 200.34 176.88 213.23 172.53 C 225.63 169.19 236.02 159.58 240.74 147.71 C 243.39 139.57 244.29 130.83 244.11 122.31 C 244.81 111.40 242.67 100.46 240.00 89.92 C 230.75 57.25 205.86 29.17 174.03 17.05 C 169.29 14.17 163.26 13.32 157.96 15.02 M 40.17 179.94 C 38.37 193.48 43.09 208.37 53.87 217.14 C 58.25 220.86 62.78 224.56 67.96 227.11 C 81.97 236.37 98.54 241.37 115.12 243.39 C 126.13 243.79 137.33 244.27 148.14 241.73 C 165.05 238.05 181.61 231.13 194.97 219.98 C 199.78 217.16 204.42 212.79 205.07 206.95 C 207.04 196.84 198.26 186.49 188.01 186.52 C 175.26 186.46 162.93 191.34 152.53 198.49 C 148.94 200.96 145.10 203.28 142.54 206.90 L 142.09 206.39 C 139.84 200.61 136.74 195.21 134.60 189.38 C 130.10 178.45 125.38 167.35 117.89 158.08 C 109.57 147.79 96.33 141.42 83.01 142.28 C 61.98 141.67 42.48 159.15 40.17 179.94 Z" />
</g>
<g id="#2aabe2ff">
<path fill="#2aabe2" opacity="1.00" d=" M 67.01 21.11 C 77.49 15.80 89.30 10.42 101.31 13.33 C 119.15 16.17 133.96 31.41 136.57 49.24 C 140.28 68.75 128.48 90.06 109.84 97.06 C 104.55 99.35 98.82 100.60 93.04 100.57 C 82.36 101.07 71.73 99.76 61.20 98.08 C 56.21 97.18 51.11 97.60 46.09 97.09 C 45.66 90.37 44.89 83.68 44.15 76.98 C 43.21 68.35 44.01 59.55 46.22 51.17 C 49.49 39.15 57.41 28.85 67.01 21.11 Z" />
<path fill="#2aabe2" opacity="1.00" d=" M 181.43 80.38 C 184.02 76.94 186.14 73.17 188.88 69.85 C 195.24 72.54 201.62 75.19 207.88 78.10 C 218.63 83.28 228.54 90.77 235.17 100.80 C 239.53 107.33 241.50 115.00 244.11 122.31 C 244.29 130.83 243.39 139.57 240.74 147.71 C 236.02 159.58 225.63 169.19 213.23 172.53 C 200.34 176.88 185.71 174.07 174.72 166.28 C 165.59 159.67 159.00 149.49 157.21 138.31 C 154.99 127.61 157.70 116.39 162.99 106.99 C 168.10 97.45 174.99 89.04 181.43 80.38 Z" />
<path fill="#2aabe2" opacity="1.00" d=" M 40.17 179.94 C 42.48 159.15 61.98 141.67 83.01 142.28 C 96.33 141.42 109.57 147.79 117.89 158.08 C 125.38 167.35 130.10 178.45 134.60 189.38 C 136.74 195.21 139.84 200.61 142.09 206.39 C 130.55 214.77 119.36 224.36 105.42 228.49 C 93.23 232.37 79.95 231.08 67.96 227.11 C 62.78 224.56 58.25 220.86 53.87 217.14 C 43.09 208.37 38.37 193.48 40.17 179.94 Z" />
</g>
<g id="#fcc824ff">
<path fill="#fcc824" opacity="1.00" d=" M 157.96 15.02 C 163.26 13.32 169.29 14.17 174.03 17.05 C 190.31 28.04 197.43 51.30 189.11 69.28 C 187.56 68.98 185.99 68.70 184.50 68.18 C 170.47 62.27 156.35 53.85 148.95 40.01 C 143.78 31.24 148.32 18.40 157.96 15.02 Z" />
<path fill="#fcc824" opacity="1.00" d=" M 17.20 113.15 C 24.30 104.43 34.54 97.46 46.09 97.09 C 47.76 102.57 47.70 108.35 48.29 114.00 C 48.37 125.91 46.30 138.41 39.20 148.29 C 33.61 155.61 21.93 157.04 14.74 151.26 C 10.18 148.18 8.47 142.39 8.32 137.15 C 8.20 128.38 11.93 120.00 17.20 113.15 Z" />
<path fill="#fcc824" opacity="1.00" d=" M 152.53 198.49 C 162.93 191.34 175.26 186.46 188.01 186.52 C 198.26 186.49 207.04 196.84 205.07 206.95 C 204.42 212.79 199.78 217.16 194.97 219.98 C 177.25 228.13 154.11 222.88 142.54 206.90 C 145.10 203.28 148.94 200.96 152.53 198.49 Z" />
</g>
<g id="#57598cff">
<path fill="#57598c" opacity="1.00" d=" M 174.03 17.05 C 205.86 29.17 230.75 57.25 240.00 89.92 C 242.67 100.46 244.81 111.40 244.11 122.31 C 241.50 115.00 239.53 107.33 235.17 100.80 C 228.54 90.77 218.63 83.28 207.88 78.10 C 201.62 75.19 195.24 72.54 188.88 69.85 L 189.11 69.28 C 197.43 51.30 190.31 28.04 174.03 17.05 Z" />
<path fill="#57598c" opacity="1.00" d=" M 52.26 30.31 C 56.98 26.95 61.74 23.58 67.01 21.11 C 57.41 28.85 49.49 39.15 46.22 51.17 C 44.01 59.55 43.21 68.35 44.15 76.98 C 44.89 83.68 45.66 90.37 46.09 97.09 C 34.54 97.46 24.30 104.43 17.20 113.15 C 11.93 120.00 8.20 128.38 8.32 137.15 C 7.02 128.86 6.04 120.37 7.25 112.00 C 9.28 79.92 26.25 49.20 52.26 30.31 Z" />
<path fill="#57598c" opacity="1.00" d=" M 105.42 228.49 C 119.36 224.36 130.55 214.77 142.09 206.39 L 142.54 206.90 C 154.11 222.88 177.25 228.13 194.97 219.98 C 181.61 231.13 165.05 238.05 148.14 241.73 C 137.33 244.27 126.13 243.79 115.12 243.39 C 98.54 241.37 81.97 236.37 67.96 227.11 C 79.95 231.08 93.23 232.37 105.42 228.49 Z" />
</g>
</svg>

<?xml version="1.0" encoding="utf-8"?>
<!-- Generator: Adobe Illustrator 26.0.3, SVG Export Plug-In . SVG Version: 6.00 Build 0)  -->
<svg version="1.1" id="Layer_1" xmlns="http://www.w3.org/2000/svg" xmlns:xlink="http://www.w3.org/1999/xlink" x="0px" y="0px"
	 viewBox="0 0 250 250" style="enable-background:new 0 0 250 250;" xml:space="preserve">
<style type="text/css">
	.st0{fill:#2AABE2;}
	.st1{fill:#FCC824;}
	.st2{fill:#57598C;}
</style>
<g id="_x23_2aabe2ff">
	<path class="st0" d="M67,21.1c10.5-5.3,22.3-10.7,34.3-7.8c17.8,2.8,32.7,18.1,35.3,35.9c3.7,19.5-8.1,40.8-26.7,47.8
		c-5.3,2.3-11,3.5-16.8,3.5c-10.7,0.5-21.3-0.8-31.8-2.5c-5-0.9-10.1-0.5-15.1-1c-0.4-6.7-1.2-13.4-1.9-20.1
		c-0.9-8.6-0.1-17.4,2.1-25.8C49.5,39.2,57.4,28.9,67,21.1z"/>
	<path class="st0" d="M181.4,80.4c2.6-3.4,4.7-7.2,7.5-10.5c6.4,2.7,12.7,5.3,19,8.2c10.8,5.2,20.7,12.7,27.3,22.7
		c4.4,6.5,6.3,14.2,8.9,21.5c0.2,8.5-0.7,17.3-3.4,25.4c-4.7,11.9-15.1,21.5-27.5,24.8c-12.9,4.4-27.5,1.5-38.5-6.2
		c-9.1-6.6-15.7-16.8-17.5-28c-2.2-10.7,0.5-21.9,5.8-31.3C168.1,97.4,175,89,181.4,80.4z"/>
	<path class="st0" d="M40.2,179.9c2.3-20.8,21.8-38.3,42.8-37.7c13.3-0.9,26.6,5.5,34.9,15.8c7.5,9.3,12.2,20.4,16.7,31.3
		c2.1,5.8,5.2,11.2,7.5,17c-11.5,8.4-22.7,18-36.7,22.1c-12.2,3.9-25.5,2.6-37.5-1.4c-5.2-2.6-9.7-6.2-14.1-10
		C43.1,208.4,38.4,193.5,40.2,179.9z"/>
</g>
<g id="_x23_fcc824ff">
	<path class="st1" d="M158,15c5.3-1.7,11.3-0.9,16.1,2c16.3,11,23.4,34.2,15.1,52.2c-1.6-0.3-3.1-0.6-4.6-1.1
		c-14-5.9-28.1-14.3-35.6-28.2C143.8,31.2,148.3,18.4,158,15z"/>
	<path class="st1" d="M17.2,113.2c7.1-8.7,17.3-15.7,28.9-16.1c1.7,5.5,1.6,11.3,2.2,16.9c0.1,11.9-2,24.4-9.1,34.3
		c-5.6,7.3-17.3,8.8-24.5,3c-4.6-3.1-6.3-8.9-6.4-14.1C8.2,128.4,11.9,120,17.2,113.2z"/>
	<path class="st1" d="M152.5,198.5c10.4-7.2,22.7-12,35.5-12c10.2,0,19,10.3,17.1,20.4c-0.7,5.8-5.3,10.2-10.1,13
		c-17.7,8.2-40.9,2.9-52.4-13.1C145.1,203.3,148.9,201,152.5,198.5z"/>
</g>
<g id="_x23_57598cff">
	<path class="st2" d="M174,17c31.8,12.1,56.7,40.2,66,72.9c2.7,10.5,4.8,21.5,4.1,32.4c-2.6-7.3-4.6-15-8.9-21.5
		c-6.6-10-16.5-17.5-27.3-22.7c-6.3-2.9-12.6-5.6-19-8.2l0.2-0.6C197.4,51.3,190.3,28,174,17z"/>
	<path class="st2" d="M52.3,30.3C57,27,61.7,23.6,67,21.1c-9.6,7.7-17.5,18-20.8,30.1c-2.2,8.4-3,17.2-2.1,25.8
		c0.7,6.7,1.5,13.4,1.9,20.1c-11.5,0.4-21.8,7.3-28.9,16.1c-5.3,6.8-9,15.2-8.9,24C7,128.9,6,120.4,7.2,112
		C9.3,79.9,26.2,49.2,52.3,30.3z"/>
	<path class="st2" d="M105.4,228.5c13.9-4.1,25.1-13.7,36.7-22.1l0.4,0.5c11.6,16,34.7,21.2,52.4,13.1
		c-13.4,11.2-29.9,18.1-46.8,21.8c-10.8,2.5-22,2.1-33,1.7c-16.6-2-33.2-7-47.2-16.3C79.9,231.1,93.2,232.4,105.4,228.5z"/>
</g>
</svg>
